favicon.svg

<svg width="80" height="48" viewBox="0 0 80 48" fill="none" xmlns="http://www.w3.org/2000/svg">
<path d="M6.72656 39V18.6328H0.914062V15H6.72656V13.7812C6.72656 10.3281 7.11719 7.77344 7.89844 6.11719C8.67969 4.46094 9.88281 3.10156 11.5078 2.03906C13.1484 0.976563 15.3125 0.445312 18 0.445312C20.0312 0.445312 22.0938 0.65625 24.1875 1.07812V5.22656C21.9219 4.47656 19.9141 4.10156 18.1641 4.10156C16.7734 4.10156 15.5469 4.35938 14.4844 4.875C13.4219 5.39062 12.5859 6.23438 11.9766 7.40625C11.3828 8.5625 11.0859 10.5312 11.0859 13.3125V15H21.4688V18.6328H11.0859V39H6.72656ZM50.9531 47.7188C46.625 47.4531 42.9766 46.2266 40.0078 44.0391C37.0391 41.8672 34.6641 38.9297 32.8828 35.2266C31.1172 31.5234 30.2344 27.8125 30.2344 24.0938C30.2344 20.375 31.1172 16.6641 32.8828 12.9609C34.6641 9.25781 37.0391 6.32031 40.0078 4.14844C42.9766 1.96094 46.625 0.726562 50.9531 0.445312V4.10156C47.6875 4.39844 44.875 5.5 42.5156 7.40625C40.1719 9.29688 38.3281 11.7109 36.9844 14.6484C35.6406 17.5859 34.9688 20.7344 34.9688 24.0938C34.9688 27.4531 35.6406 30.6016 36.9844 33.5391C38.3281 36.4766 40.1719 38.8906 42.5156 40.7812C44.875 42.6719 47.6875 43.7734 50.9531 44.0859V47.7188ZM58.3359 0.445312C62.6641 0.726562 66.3125 1.96094 69.2812 4.14844C72.25 6.32031 74.6172 9.25781 76.3828 12.9609C78.1641 16.6641 79.0547 20.375 79.0547 24.0938C79.0547 27.8125 78.1641 31.5234 76.3828 35.2266C74.6172 38.9297 72.25 41.8672 69.2812 44.0391C66.3125 46.2266 62.6641 47.4531 58.3359 47.7188V44.0859C61.6016 43.7734 64.4062 42.6719 66.75 40.7812C69.1094 38.8906 70.9609 36.4766 72.3047 33.5391C73.6641 30.6016 74.3438 27.4531 74.3438 24.0938C74.3438 20.7344 73.6641 17.5859 72.3047 14.6484C70.9609 11.7109 69.1094 9.29688 66.75 7.40625C64.4062 5.5 61.6016 4.39844 58.3359 4.10156V0.445312Z" fill="black"/>
</svg>

<svg width="80" height="48" fill="none" xmlns="http://www.w3.org/2000/svg"><path d="M6.727 39V18.633H.914V15h5.813v-1.219c0-3.453.39-6.008 1.171-7.664.782-1.656 1.985-3.015 3.61-4.078C13.148.977 15.313.445 18 .445c2.031 0 4.094.211 6.188.633v4.149c-2.266-.75-4.274-1.125-6.024-1.125-1.39 0-2.617.257-3.68.773-1.062.516-1.898 1.36-2.507 2.531-.594 1.157-.891 3.125-.891 5.907V15h10.383v3.633H11.086V39h-4.36Zm44.226 8.719c-4.328-.266-7.976-1.492-10.945-3.68-2.969-2.172-5.344-5.11-7.125-8.812-1.766-3.704-2.649-7.414-2.649-11.133 0-3.719.883-7.43 2.649-11.133 1.781-3.703 4.156-6.64 7.125-8.813C42.977 1.961 46.625.727 50.953.445v3.657c-3.266.296-6.078 1.398-8.437 3.304-2.344 1.89-4.188 4.305-5.532 7.242-1.343 2.938-2.015 6.086-2.015 9.446 0 3.36.672 6.508 2.015 9.445 1.344 2.938 3.188 5.352 5.532 7.242 2.359 1.89 5.172 2.992 8.437 3.305v3.633ZM58.336.445c4.328.282 7.977 1.516 10.945 3.703 2.969 2.172 5.336 5.11 7.102 8.813 1.781 3.703 2.672 7.414 2.672 11.133 0 3.718-.89 7.43-2.672 11.133-1.766 3.703-4.133 6.64-7.102 8.812-2.969 2.188-6.617 3.414-10.945 3.68v-3.633c3.266-.313 6.07-1.414 8.414-3.305 2.36-1.89 4.21-4.304 5.555-7.242 1.36-2.937 2.039-6.086 2.039-9.445 0-3.36-.68-6.508-2.04-9.446-1.343-2.937-3.195-5.351-5.554-7.242-2.344-1.906-5.148-3.008-8.414-3.304V.445Z" fill="#000"/></svg>
